assets/icons/24px/stroke/folder-tick-24px.svg

<svg width="24" height="24" viewBox="0 0 24 24" fill="none" xmlns="http://www.w3.org/2000/svg">
<path fill-rule="evenodd" clip-rule="evenodd" d="M11.4472 4.10554C11.2857 4.02477 11.0818 3.99997 10 3.99997H7C6.02893 3.99997 5.40122 4.0021 4.93871 4.06428C4.50497 4.12259 4.36902 4.21674 4.2929 4.29286C4.21677 4.36899 4.12263 4.50494 4.06431 4.93868C4.02666 5.2187 4.01103 5.55929 4.00455 5.99997H13L12.4 5.19997C11.7509 4.33452 11.6088 4.18631 11.4472 4.10554ZM15.5 5.99997L14 3.99997C13.9662 3.95494 13.9328 3.91018 13.8996 3.86576C13.4133 3.21496 12.981 2.63639 12.3416 2.31669C11.7022 1.99699 10.98 1.9983 10.1676 1.99977C10.1122 1.99987 10.0563 1.99997 10 1.99997H7C6.97799 1.99997 6.95604 1.99997 6.93417 1.99997C6.04769 1.99992 5.28387 1.99988 4.67221 2.08211C4.0167 2.17024 3.38835 2.36899 2.87868 2.87865C2.36902 3.38831 2.17028 4.01666 2.08215 4.67218C1.99991 5.28384 1.99995 6.04765 2 6.93414C2 6.95601 2 6.97795 2 6.99997L2 17.0658C1.99995 17.9523 1.99991 18.7161 2.08215 19.3278C2.17028 19.9833 2.36902 20.6116 2.87868 21.1213C3.38835 21.631 4.0167 21.8297 4.67221 21.9178C5.28388 22.0001 6.0477 22 6.9342 22L11 22C11.5523 22 12 21.5523 12 21C12 20.4477 11.5523 20 11 20H7C6.02893 20 5.40122 19.9978 4.93871 19.9357C4.50497 19.8773 4.36902 19.7832 4.2929 19.7071C4.21677 19.631 4.12263 19.495 4.06431 19.0613C4.00213 18.5988 4 17.9711 4 17V7.99997H17C17.9711 7.99997 18.5988 8.0021 19.0613 8.06428C19.495 8.12259 19.631 8.21674 19.7071 8.29287C19.7832 8.36899 19.8774 8.50494 19.9357 8.93868C19.9979 9.40118 20 10.0289 20 11V11.5C20 12.0523 20.4477 12.5 21 12.5C21.5523 12.5 22 12.0523 22 11.5L22 10.9342C22.0001 10.0477 22.0001 9.28385 21.9179 8.67218C21.8297 8.01666 21.631 7.38831 21.1213 6.87865C20.6117 6.36899 19.9833 6.17024 19.3278 6.08211C18.7161 5.99988 17.9523 5.99992 17.0658 5.99997L15.5 5.99997Z" fill="white"/>
<path fill-rule="evenodd" clip-rule="evenodd" d="M14.2 18.4C14.5314 17.9581 15.1582 17.8686 15.6 18.2L16.8639 19.1479L20.2526 15.3356C20.6195 14.9228 21.2516 14.8856 21.6644 15.2526C22.0771 15.6195 22.1143 16.2516 21.7474 16.6643L17.7474 21.1643C17.4019 21.5531 16.8161 21.612 16.4 21.3L14.4 19.8C13.9582 19.4686 13.8686 18.8418 14.2 18.4Z" fill="white"/>
</svg>

<svg width="24" height="24" fill="none" xmlns="http://www.w3.org/2000/svg"><path fill-rule="evenodd" clip-rule="evenodd" d="M11.447 4.106C11.286 4.025 11.082 4 10 4H7c-.971 0-1.599.002-2.061.064-.434.059-.57.153-.646.229-.076.076-.17.212-.229.646A9.27 9.27 0 0 0 4.004 6H13l-.6-.8c-.65-.865-.791-1.014-.953-1.094zM15.5 6L14 4l-.1-.134c-.487-.651-.919-1.23-1.558-1.55-.64-.319-1.362-.318-2.174-.316H6.934c-.886 0-1.65 0-2.262.082-.655.088-1.284.287-1.793.797-.51.51-.709 1.138-.797 1.793C2 5.284 2 6.048 2 6.934V17.066c0 .886 0 1.65.082 2.262.088.655.287 1.284.797 1.793.51.51 1.138.709 1.793.797C5.284 22 6.048 22 6.934 22H11a1 1 0 1 0 0-2H7c-.971 0-1.599-.002-2.061-.064-.434-.059-.57-.153-.646-.229-.076-.076-.17-.212-.229-.646C4.002 18.6 4 17.971 4 17V8h13c.971 0 1.599.002 2.061.064.434.059.57.153.646.229.076.076.17.212.229.646.062.462.064 1.09.064 2.061v.5a1 1 0 1 0 2 0v-.566c0-.886 0-1.65-.082-2.262-.088-.655-.287-1.284-.797-1.793-.51-.51-1.138-.709-1.793-.797C18.716 6 17.952 6 17.066 6H15.5z" fill="#fff"/><path fill-rule="evenodd" clip-rule="evenodd" d="M14.2 18.4a1 1 0 0 1 1.4-.2l1.264.948 3.389-3.812a1 1 0 1 1 1.494 1.328l-4 4.5a1 1 0 0 1-1.347.136l-2-1.5a1 1 0 0 1-.2-1.4z" fill="#fff"/></svg>
